!!!!SEGMENT: pl-cz--iii-101_danik-jan-ignac--sancte-patrone.krn
!!!cenid: 17xx:872
!!!COM: Danik, Ján Ignác
!!!COM-rismid: pe30000792
!!!CDT: ~1700-~1799
!!!CNT: Czech
!!!OTL: Sancte Patrone
!!!PDT: 1773
!!!AGN: Sacred
!!!SMS-siglum: PL-CZ
!!!SMS-shelfmark: III-101
!!!SMS-shelfwork: W
!!!SMS-variant:
!!!SMS-altvar:
!!!NIFC-rismid: 300000101
!!!URL-scan: http://repozytorium.nifc.pl/skany/pl-cz-nut--iii-101
!!!ONB-nifc:
!!!AIN: 1 organ 1 soprn 2 violn
!!!key: G
**kern	**fba	**dynam	**kern	**dynam	**kern	**dynam	**kern	**text	**text
*part4	*	*part4	*part3	*part3	*part2	*part2	*part1	*part1	*part1
*staff4	*	*	*staff3	*	*staff2	*	*staff1	*staff1	*staff1
*I"Organo	*	*	*I"Violino Secundo.	*	*I"Violino Primo.	*	*I"La Voce.	*	*
*I'org	*	*	*I'vl 2	*	*I'vl 1	*	*I'S	*	*
*Iorgan	*	*	*Ivioln	*	*Ivioln	*	*Isoprn	*	*
*ICklav	*	*	*ICstr	*	*ICstr	*	*ICvox	*	*
*IGacmp	*	*	*IGacmp	*	*IGacmp	*	*IGsolo	*	*
*>[A,B,A]	*	*>[A,B,A]	*>[A,B,A]	*>[A,B,A]	*>[A,B,A]	*>[A,B,A]	*>[A,B,A]	*>[A,B,A]	*>[A,B,A]
*>A	*	*>A	*>A	*>A	*>A	*>A	*>A	*>A	*>A
*clefF4	*	*	*clefG2	*	*clefG2	*	*clefC1	*	*
*k[f#]	*	*	*k[f#]	*	*k[f#]	*	*k[f#]	*	*
*G:	*	*	*G:	*	*G:	*	*G:	*	*
*M4/4	*	*	*M4/4	*	*M4/4	*	*M4/4	*	*
*met(c)	*	*	*met(c)	*	*met(c)	*	*met(c)	*	*
=1	=1	=1	=1	=1	=1	=1	=1	=1	=1
!LO:TX:a:t=P:problem=mixed beam	!	!	!	!	!	!	!	!	!
!LO:TX:a:rj:t=moderato.	!	!	!LO:TX:a:t=moderato.	!	!LO:TX:a:t=moderato	!	!LO:TX:a:t=moderato	!	!
!LO:TX:a:rj:t=Aria	!	!	!LO:TX:a:t=Aria.	!	!LO:TX:a:t=Aria	!	!LO:TX:a:t=Aria	!	!
8GG/L	.	.	8.B/L	.	8.gT/L	.	00r	.	.
8G\	.	.	.	.	.	.	.	.	.
.	.	.	16g/Jk	.	16b/K	.	.	.	.
8F#\	6	.	8.f#/L	.	8.aT/	.	.	.	.
8D\J	7	.	.	.	.	.	.	.	.
.	.	.	16a/Jk	.	16cc/Jk	.	.	.	.
!	!	!	!	!	!LO:TX:a:t=P:problem=mixed beam	!	!	!	!
4G\	.	.	8.f#/L	.	8.bt\L	.	.	.	.
.	.	.	16a/Jk	.	16cc\K	.	.	.	.
!	!	!	!LO:TX:a:t=P:problem=mixed beam	!	!	!	!	!	!
8r	.	.	8b\L	.	8dd\	.	.	.	.
8GG/	.	.	8B/J	.	8d/J	.	.	.	.
=2	=2	=2	=2	=2	=2	=2	=2	=2	=2
4C/	.	.	8c/L	.	8e/L	.	.	.	.
!	!	!	!LO:TUP:b	!	!LO:TUP:b	!	!	!	!
.	.	.	24e/L	.	24cc/L	.	.	.	.
.	.	.	24d/	.	24b/	.	.	.	.
.	.	.	24c/JJ	.	24a/JJ	.	.	.	.
!LO:TX:a:t=P:problem=mixed beam	!	!	!	!	!	!	!	!	!
8D\L	4	.	8B/L	.	8g/L	.	.	.	.
8DD/J	3	.	8A/J	.	8f#/J	.	.	.	.
.	.	.	8qqA/	.	8qqf#/	.	.	.	.
!LO:TX:a:t=P:problem=mixed beam	!	!	!	!	!	!	!	!	!
16GG/LL	.	.	4B/	.	4g/	.	.	.	.
16G|\	.	.	.	.	.	.	.	.	.
16F#|\	.	.	.	.	.	.	.	.	.
16G|\JJ	.	.	.	.	.	.	.	.	.
16D|\LL	.	.	4r	.	4r	.	.	.	.
16G|\	.	.	.	.	.	.	.	.	.
16BB|\	.	.	.	.	.	.	.	.	.
16D|\JJ	.	.	.	.	.	.	.	.	.
=3	=3	=3	=3	=3	=3	=3	=3	=3	=3
!LO:TX:a:t=P:problem=mixed beam	!	!	!	!LO:DY:a:t=pia.	!	!LO:DY:a:t=p&colon;	!	!	!
8GG/L	.	.	8.B/L	p	8.GT/L	p	.	.	.
8G\	.	.	.	.	.	.	.	.	.
.	.	.	16g/Jk	.	16B/K	.	.	.	.
8F#\	6	.	8.f#/L	.	8.AT/	.	.	.	.
8D\J	7	.	.	.	.	.	.	.	.
.	.	.	16a/Jk	.	16c/Jk	.	.	.	.
4G\	.	.	8.g/L	.	8.Bt/L	.	.	.	.
.	.	.	16a/Jk	.	16c/Jk	.	.	.	.
!	!	!	!LO:TX:a:t=P:problem=mixed beam	!	!	!	!	!	!
8r	.	.	8b\L	.	8d/L	.	.	.	.
8GG/	.	.	8B/J	.	8g/J	.	.	.	.
=4	=4	=4	=4	=4	=4	=4	=4	=4	=4
!	!	!	!	!	!LO:TUP:b	!	!	!	!
8D\L	7_	.	8f#/L	.	24f#/LL	.	.	.	.
.	.	.	.	.	24a/	.	.	.	.
.	.	.	.	.	24cc/JJ	.	.	.	.
8F#\	.	.	8a/J	.	24ff#\LL	.	.	.	.
.	.	.	.	.	24aa\	.	.	.	.
.	.	.	.	.	24ccc\JJ	.	.	.	.
!	!	!	!	!	!LO:LB:g=original	!	!	!	!
!	!	!	!	!	!LO:TUP:b	!	!	!	!
8G\	.	.	8b\L	.	24g/LL	.	.	.	.
.	.	.	.	.	24b/	.	.	.	.
.	.	.	.	.	24dd/JJ	.	.	.	.
8B\J	6	.	8gg\J	.	24gg\LL	.	.	.	.
.	.	.	.	.	24bb\	.	.	.	.
.	.	.	.	.	24ddd\JJ	.	.	.	.
.	.	.	8qqgg/	.	8qqbb/	.	.	.	.
!LO:LB:g=original	!	!	!	!	!	!	!	!	!
16d\LL	.	.	4ff#\	.	4aa\	.	.	.	.
16A\	.	.	.	.	.	.	.	.	.
16F#\	.	.	.	.	.	.	.	.	.
16A\JJ	.	.	.	.	.	.	.	.	.
8D/	.	.	8r	.	8r	.	.	.	.
!	!	!	!LO:TX:a:t=P:problem=mixed beam	!	!	!	!	!	!
8r	.	.	16.dd\LL	.	16.dd\LL	.	.	.	.
.	.	.	32f#/JJk	.	32a\JJk	.	.	.	.
!	!	!	!LO:LB:g=original	!	!	!	!	!	!
=5	=5	=5	=5	=5	=5	=5	=5	=5	=5
8r	.	.	(16f#/LL	.	(16a/LL	.	00r	.	.
.	.	.	16e/J)	.	16g/J)	.	.	.	.
16AA/LL	#	.	8e/J|	.	8g/J	.	.	.	.
16BB/J	.	.	.	.	.	.	.	.	.
8C#X/J	6	.	8r	.	8r	.	.	.	.
!	!	!	!	!	!LO:TX:a:t=P:problem=mixed beam	!	!	!	!
8r	.	.	(16g/LL	.	16.ee\LL	.	.	.	.
.	.	.	16e/JJ)	.	.	.	.	.	.
.	.	.	.	.	32f#/JJk	.	.	.	.
8r	.	.	(16e/LL	.	(16g/LL	.	.	.	.
.	.	.	16d/J)	.	16f#/J)	.	.	.	.
16D\LL	.	.	8d/J|	.	8f#/J|	.	.	.	.
16E\J	.	.	.	.	.	.	.	.	.
8F#\J	.	.	8r	.	8r	.	.	.	.
8r	.	.	8f#/	.	8a/	.	.	.	.
=6	=6	=6	=6	=6	=6	=6	=6	=6	=6
!	!	!	!LO:TX:a:t=P:problem=mixed beam	!	!	!	!	!	!
4G\	.	.	8g/L	.	8b\L	.	.	.	.
.	.	.	24gg\L	.	24bb\L	.	.	.	.
.	.	.	24ff#\	.	24aa\	.	.	.	.
.	.	.	24ee\JJ	.	24gg\JJ	.	.	.	.
*	*	*	*Xbrackettup	*	*Xbrackettup	*	*	*	*
!LO:TX:a:t=P:problem=mixed beam	!	!	!LO:TX:a:t=P:problem=mixed beam	!	!LO:TUP:r=8	!	!	!	!
!	!	!	!LO:TUP:r=8	!	!	!	!	!	!
!	!	!	!LO:TUP:a	!	!	!	!	!	!
8A\L	4	.	24dd\LL	.	24ff#\LL	.	.	.	.
.	.	.	24ee\	.	24ee\	.	.	.	.
.	.	.	24ff#\	.	24dd\	.	.	.	.
!	!	!	!LO:TUP:b	!	!	!	!	!	!
8AA/J	#	.	24e/	.	24cc#X\	.	.	.	.
.	.	.	24f#/	.	24dd\	.	.	.	.
.	.	.	24g/JJ	.	24ee\JJ	.	.	.	.
.	.	.	8qqg/	.	8qqee/	.	.	.	.
16r	.	.	4f#/	.	4dd\	.	.	.	.
16D|\LL	.	.	.	.	.	.	.	.	.
16F#|\	.	.	.	.	.	.	.	.	.
16A|\JJ	.	.	.	.	.	.	.	.	.
8d\	.	.	8r	.	8r	.	.	.	.
8r	.	.	(16f#/LL	.	(16aa\LL	.	.	.	.
.	.	.	16g/JJ)	.	16bb\JJ)	.	.	.	.
!	!	!	!	!	!LO:LB:g=original	!	!	!	!
=7	=7	=7	=7	=7	=7	=7	=7	=7	=7
8D\L	7_	.	8a/L	.	24ccc\LL	.	.	.	.
.	.	.	.	.	24aa\	.	.	.	.
.	.	.	.	.	24gg\	.	.	.	.
8D\	.	.	8a/	.	24ff#\	.	.	.	.
.	.	.	.	.	24ee\	.	.	.	.
.	.	.	.	.	24dd\JJ	.	.	.	.
.	.	.	.	.	8qqdd/	.	.	.	.
8D\	.	.	8a/	.	4cc\	.	.	.	.
8D\J	.	.	8a/J	.	.	.	.	.	.
*	*	*	*tremolo	*	*Xtuplet	*	*	*	*
8D\L	.	.	8a/L	.	24cc/LL	.	.	.	.
.	.	.	.	.	24a/	.	.	.	.
.	.	.	.	.	24g/	.	.	.	.
8D\	.	.	8a/	.	24f#/	.	.	.	.
.	.	.	.	.	24e/	.	.	.	.
.	.	.	.	.	24d/JJ	.	.	.	.
.	.	.	.	.	8qqd/	.	.	.	.
8F#\	.	.	8a/	.	4c/	.	.	.	.
8D\J	X	.	8a/J	.	.	.	.	.	.
*	*	*	*Xtremolo	*	*	*	*	*	*
!LO:LB:g=original	!	!	!	!	!	!	!	!	!
=8	=8	=8	=8	=8	=8	=8	=8	=8	=8
*	*	*	*	*	*tuplet	*	*	*	*
!	!	!	!	!	!LO:TUP:r=8	!	!	!	!
8G\L	.	.	8b\L|	.	24gg\LL	.	.	.	.
.	.	.	.	.	24dd\	.	.	.	.
.	.	.	.	.	24dd#X\	.	.	.	.
8C\	.	.	(16cc\L	.	24ee\	.	.	.	.
.	.	.	.	.	24cc\	.	.	.	.
.	.	.	16a\JJ)	.	.	.	.	.	.
.	.	.	.	.	24a\JJ	.	.	.	.
8D\	4	.	8g/L	.	8g/L	.	.	.	.
8D\J	3	.	8f#/J	.	8aT/J	.	.	.	.
.	.	.	8qqf#/	.	.	.	.	.	.
16.GG\LL	.	.	4g/	.	4g/	.	.	.	.
32G|\K	.	.	.	.	.	.	.	.	.
16.BB|\	.	.	.	.	.	.	.	.	.
32D|\JJk	.	.	.	.	.	.	.	.	.
4GG;;/	.	.	4r;;	.	4r	.	.	.	.
!	!	!	!LO:LB:g=original	!	!	!	!	!	!
=9	=9	=9	=9	=9	=9	=9	=9	=9	=9
!LO:TX:a:t=P:problem=mixed beam	!	!LO:DY:a:t=Piano.	!	!LO:DY:a:t=Piano.	!	!LO:DY:a:rj:t=Piano.	!	!	!
8GG/L	.	p	8.B/L	p	8.gT/L	p	8.gT\	San-	Sal-
8G\	.	.	.	.	.	.	.	.	.
.	.	.	16g/Jk	.	16b/K	.	16b\	-cte	-ve
8F#\	6	.	8.f#/L	.	8.aT/	.	(8.aT\L	Pa-	Sal-
8D\J	7	.	.	.	.	.	.	.	.
.	.	.	16a/Jk	.	16cc/Jk	.	16cc\Jk)	.	.
!	!	!	!	!	!LO:TX:a:t=P:problem=mixed beam	!	!	!	!
4G\	.	.	8.g/L	.	8.bt\L	.	(8.bt\L	-tro-	-ve
.	.	.	16a/Jk	.	16cc\K	.	16cc\Jk)	.	Re-
!	!	!	!LO:TX:a:t=P:problem=mixed beam	!	!	!	!	!	!
8r	.	.	8b\L	.	8dd\	.	8dd,\	-ne	-gi-
8GG/	.	.	8d/J	.	8d/J	.	8d/	Te	-na
=10	=10	=10	=10	=10	=10	=10	=10	=10	=10
4C/	.	.	8c/L	.	8e/L	.	8e/	pi-	Sal-
!	!	!	!LO:TUP:b	!	!LO:TUP:b	!	!	!	!
.	.	.	24e/L	.	24cc/L	.	24cc\LL	-o	-ve
.	.	.	24d/	.	24b/	.	24b\	.	.
.	.	.	24c/JJ	.	24a/JJ	.	24a\JJ	.	.
!LO:TX:a:t=P:problem=mixed beam	!	!	!	!	!	!	!	!	!
8D\L	4	.	8B/L	.	8g/L	.	(8g/L	Cor-	Re-
8DD/J	3	.	8A/J	.	8f#/J	.	8f#/J)	.	-gi-
.	.	.	.	.	.	.	8qqf#/	.	.
!	!	!	!LO:TX:a:t=P:problem=mixed beam	!LO:DY:a:t=for.	!LO:LB:g=original	!LO:DY:a:t=for.	!	!	!
4GG/	.	.	8B/L	f	8g\L	f	4g\	-de	-na
.	.	.	(16cc\L	.	16ee\L	.	.	.	.
.	.	.	16a\JJ)	.	16cc\JJ	.	.	.	.
4r	.	.	(16b/LL	.	(16dd\LL	.	4r	.	.
.	.	.	16g/)	.	16b\)	.	.	.	.
.	.	.	(16a/	.	(16cc\	.	.	.	.
.	.	.	16f#/JJ)	.	16a\JJ)	.	.	.	.
!	!	!	!	!	!	!	!LO:LB:g=original	!	!
=11	=11	=11	=11	=11	=11	=11	=11	=11	=11
!LO:TX:a:t=P:problem=mixed beam	!	!	!	!LO:DY:a:t=p&colon;	!	!LO:DY:a:rj:t=pia.	!	!	!
8GG/L	.	.	8.B/L	p	8.g/L	p	8.gT\	San-	ma-
8G\	.	.	.	.	.	.	.	.	.
.	.	.	16g/K	.	16b/Jk	.	16b\	-cte	.
8F#\	6	.	8.f#/	.	8.aT\L	.	8.aT\L	Pa-	.
8D\J	7	.	.	.	.	.	.	.	.
.	.	.	16a/Jk	.	16cc\Jk	.	16cc\Jk	.	.
!	!	!	!	!	!LO:TX:a:t=P:problem=mixed beam	!	!	!	!
4G\	.	.	8.g/L	.	8.bt\L	.	8.bt\L	-tro-	.
.	.	.	16a/K	.	16cc\K	.	16cc\Jk	.	.
8r	.	.	8b/	.	8dd\	.	8dd,\	-ne	-ter
8GG/	.	.	8b/J	.	8d/J	.	8d/	Te	mi-
=12	=12	=12	=12	=12	=12	=12	=12	=12	=12
!	!	!	!LO:TX:a:t=P:problem=mixed beam	!	!LO:TX:a:t=P:problem=mixed beam	!	!	!	!
4C/	.	.	8e/L	.	8e/L	.	8e/	pi-	-se-
.	.	.	24cc\L	.	24ee\L	.	24ee\LL	-a	-ri-
.	.	.	24b\	.	24dd\	.	24dd\	.	.
.	.	.	24a\JJ	.	24cc\JJ	.	24cc\JJ	.	.
8D\L	4	.	8g/L	.	8b/L	.	(8b\L	Men-	-cor-
8D\J	3	.	8f#/J	.	8a/J	.	8a\J)	.	-di-
.	.	.	8qqf#/	.	8qqa/	.	8qqa/	.	.
!LO:LB:g=original	!	!	!	!	!	!	!	!	!
16.G\LL	.	.	4g/	.	4g/	.	4g\	-te	-ae
32D|\K	.	.	.	.	.	.	.	.	.
16.BB|\	.	.	.	.	.	.	.	.	.
32D|\JJk	.	.	.	.	.	.	.	.	.
!	!	!	!LO:LB:g=original	!	!	!	!	!	!
8GG/	.	.	8r	.	8r	.	8r	.	.
8r	.	.	(16dd\LL	.	(16gg\LL	.	(16gg\LL	ho-	vi-
.	.	.	16b\JJ)	.	16dd\JJ)	.	16dd\JJ)	.	.
=13	=13	=13	=13	=13	=13	=13	=13	=13	=13
8r	.	.	(16b/LL	.	(16dd\LL	.	(16dd\LL	-no-	-ta
.	.	.	16a/J)	.	16cc\J)	.	16cc\JJ)	.	.
16.D\LL	.	.	8a/J|	.	8cc\J	.	8cc\	-ro	.
32E\JK	.	.	.	.	.	.	.	.	.
8F#\J	6	.	8r	.	8r	.	8r	.	.
8r	.	.	(16cc\LL	.	(16aa\LL	.	(16aa\LL	ac	dul-
.	.	.	16a\JJ)	.	16cc\JJ)	.	16cc\JJ)	.	.
!	!	!	!	!	!	!	!LO:LB:g=original	!	!
8r	.	.	(16a/LL	.	(16cc\LL	.	(16cc\LL	o-	-ce-
.	.	.	16g/J)	.	16b\J)	.	16b\JJ)	.	.
16GG/LL	.	.	8g/J|	.	8b\J|	.	8b\	-ro	-do
16AA/J	.	.	.	.	.	.	.	.	.
8BB/J	.	.	8r	.	8.r	.	8.r	.	.
8r	.	.	8e/	.	.	.	.	.	.
.	.	.	.	.	16gg\	.	[16gg\	dig-	et
!	!	!	!	!	!LO:LB:g=original	!	!	!	!
=14	=14	=14	=14	=14	=14	=14	=14	=14	=14
4r	.	.	8.eT/L	.	8.gg\L	.	(8.gg\L]	-niſ-	spes
.	.	.	(32d/LL	.	(32ff#\LL	.	(32ff#\LL)	-si-	.
.	.	.	32c/JJJ)	.	32ee\JJJ)	.	32ee\JJJ)	.	.
!LO:TX:a:t=P:problem=mixed beam	!	!	!	!	!	!	!	!	!
8G\L	.	.	8B/	.	8dd\L	.	8dd\	-me	.
8GG/J	.	.	16r	.	16r	.	16r	.	.
*	*	*	*	*	*	*	*	*	*ij
.	.	.	16c/	.	16ee\Jk	.	16ee\	Pa-	et
4r	.	.	8.cT/L	.	8.eeT\L	.	8.eeT\L	-tro-	spes
*	*	*	*	*	*	*	*	*	*Xij
.	.	.	(32B/LL	.	(32dd\LL	.	(32dd\LL	.	.
.	.	.	32A/JJJ)	.	32cc\JJJ)	.	32cc\JJJ)	.	.
!LO:TX:a:t=P:problem=mixed beam	!	!	!	!	!	!	!	!	!
8G\L	.	.	8G/	.	8b\	.	8b\	-ne	.
8GG/J	.	.	8r	.	8r	.	8r	.	.
=15	=15	=15	=15	=15	=15	=15	=15	=15	=15
*tremolo	*	*	*	*	*	*	*	*	*
*2\right	*	*	*	*	*	*	*	*	*
8G\L	.	.	8b\L	.	4gg\	.	4gg\	no-	no-
8G\	.	.	8b\J	.	.	.	.	.	.
8G\	.	.	8b/L|	.	24gg\LL	.	24gg\LL	.	.
.	.	.	.	.	24ff#\	.	24ff#\	.	.
.	.	.	.	.	24ee\	.	24ee\	.	.
*Xtremolo	*	*	*	*	*	*	*	*	*
!	!	!	!LO:TUP:b	!	!	!	!	!	!
8G\J	.	.	24b/L	.	24dd\	.	24dd\	.	.
.	.	.	24a/	.	24cc\	.	24cc\	.	.
.	.	.	24g/JJ	.	24b\JJ	.	24b\JJ	.	.
.	.	.	8qqg/	.	8qqb/	.	8qqb/	.	.
8D\L	.	.	4f#/	.	4a/	.	4a\	-ster	-stra
16F#\L	.	.	.	.	.	.	.	.	.
16A\JJ	.	.	.	.	.	.	.	.	.
8d\	.	.	8r	.	8r	.	8r	.	.
8r	.	.	8f#/	.	8dd\	.	8dd\	con-	Sal-
!	!	!	!LO:LB:g=original	!	!	!	!LO:LB:g=original	!	!
=16	=16	=16	=16	=16	=16	=16	=16	=16	=16
*tremolo	*	*	*	*	*	*	*	*	*
8D\L	.	.	(16a\LL	.	(16dd\LL	.	16dd\LL	.	.
.	.	.	16f#\)	.	16a\)	.	16a\	.	.
8D\	.	.	(16dd\	.	(16ff#\	.	16ff#\	.	.
.	.	.	16a\JJ)	.	16dd\JJ)	.	16dd\JJ	.	.
!	!	!	!LO:TX:a:t=P:problem=mixed beam	!	!	!	!	!	!
8D\	.	.	(16ff#\LL	.	(16aa\LL	.	16aa\LL	.	.
.	.	.	16a/)	.	16ff#\)	.	16ff#\	.	.
8D\J	.	.	(16g/	.	(16ee\	.	16ee\	.	.
.	.	.	16f#/JJ)	.	16dd\JJ)	.	16dd\JJ	.	.
*Xtremolo	*	*	*	*	*	*	*	*	*
!LO:LB:g=original	!	!	!	!	!	!	!	!	!
!LO:TX:a:t=P:problem=mixed beam	!	!	!	!	!	!	!	!	!
8A\L	#	.	(16f#/LL	.	8ddT\L	.	(16dd\LL	-ser-	.
.	.	.	16e/J)	.	.	.	16cc#X\JJ)	.	.
16AA/L	.	.	8e/J	.	8cc#X\J	.	8cc#\	-va	-ve
16BB/JJ	.	.	.	.	.	.	.	.	.
8C#X/L	.	.	8r	.	8r	.	8r	.	.
8AA/J	.	.	8c#X/	.	8ee\	.	8ee\	nos	vi-
=17	=17	=17	=17	=17	=17	=17	=17	=17	=17
*tremolo	*	*	*	*	*	*	*	*	*
8C#X/L	6 5	.	8e/L	.	(16ee\LL	.	16ee\LL	in	.
.	.	.	.	.	16dd\)	.	16dd\	.	.
8C#X/	.	.	8e/	.	(16cc#X\	.	(16cc#X\	.	.
.	.	.	.	.	16b\JJ)	.	16b\JJ)	.	.
!	!	!	!	!	!LO:LB:g=original	!	!	!	!
8C#X/	.	.	8e/	.	8a/L	.	(8a\L	tu-	.
8C#X/J	.	.	8e/J	.	8g/J	.	8g\J)	.	.
.	.	.	.	.	8qqg/	.	8qqg/	.	.
*Xtremolo	*	*	*	*	*	*	*	*	*
16D\LL	.	.	16f#/LL	.	4f#/	.	4f#/	-a	-ta
16E\	.	.	16g/	.	.	.	.	.	.
16F#\	.	.	16a/	.	.	.	.	.	.
16E\JJ	.	.	16g/JJ	.	.	.	.	.	.
8D\L	.	.	8f#/L	.	8r	.	8r	.	.
8D\J	.	.	8f#/J	.	8a/	.	8a\	gra-	dul-
=18	=18	=18	=18	=18	=18	=18	=18	=18	=18
8G\L	.	.	8d/L	.	(16b/LL	.	(16b\LL	.	.
.	.	.	.	.	16a/J)	.	16a\J	.	.
8G\	.	.	8d/	.	8b/J	.	8b\J)	.	.
!	!	!	!	!	!LO:TUP:r=8	!	!	!	!
8G\J	.	.	8d/J	.	24g\LL	.	24g\LL	.	-ce-
.	.	.	.	.	24a\	.	24a\	.	.
.	.	.	.	.	24b\	.	24b\	.	.
8r	.	.	8r	.	24b\	.	24b\	.	.
.	.	.	.	.	24cc#X\	.	24cc#X\	.	.
.	.	.	.	.	24dd\JJ	.	24dd\JJ	.	.
!	!	!	!	!	!	!	!LO:LB:g=original	!	!
8E\L	6\ 3	.	8g/L	.	(16cc#\LL	.	(16cc#X\LL	.	.
.	.	.	.	.	16b\J)	.	16b\J)	.	.
8E\	.	.	8g/	.	8cc#\J|	.	8cc#\J	.	.
*	*	*	*	*	*	*	*Xbrackettup	*	*
!	!	!	!	!	!LO:TUP:r=8	!	!LO:TUP:r=8	!	!
8E\J	.	.	8g/J	.	24a\LL	.	24a\LL	.	.
.	.	.	.	.	24b\	.	24b\	.	.
.	.	.	.	.	24cc#\	.	24cc#\	.	.
8r	.	.	8r	.	24cc#\	.	24cc#\	.	.
.	.	.	.	.	24dd\	.	24dd\	.	.
.	.	.	.	.	24ee\JJ	.	24ee\JJ	.	.
=19	=19	=19	=19	=19	=19	=19	=19	=19	=19
!LO:TX:a:t=P:problem=mixed beam	!	!	!LO:TX:a:t=P:problem=mixed beam	!	!	!	!	!	!
8D\L	.	.	8f#/L	.	8.ddT\L	.	8.ddT\L	.	.
8D\	.	.	8dd\J	.	.	.	.	.	.
.	.	.	.	.	(32ee\LL	.	(32ee\LL	.	.
.	.	.	.	.	32ff#\JJJ)	.	32ff#\JJJ)	.	.
8A\	4	.	8.cc#Xt\L	.	8.eeT\L	.	8.eeT\L	.	.
8AA/J	#	.	.	.	.	.	.	.	.
.	.	.	(32dd\LL	.	(32ff#\LL	.	(32ff#\LL	.	.
.	.	.	32ee\JJJ)	.	32gg\JJJ)	.	32gg\JJJ)	.	.
4D\	.	.	4a/	.	(16ff#\LL	.	16ff#\LL	.	.
.	.	.	.	.	16dd\)	.	16dd\	.	.
.	.	.	.	.	(16gg\	.	16gg\	.	.
.	.	.	.	.	16ee\JJ)	.	16ee\JJ	.	.
4r	.	.	4r	.	(16aa\LL	.	16aa\LL	.	.
.	.	.	.	.	16ff#\)	.	16ff#\	.	.
.	.	.	.	.	(16ee\	.	16ee\	.	.
.	.	.	.	.	16dd\JJ)	.	16dd\JJ	.	.
!	!	!	!LO:LB:g=original	!	!LO:LB:g=original	!	!	!	!
=20	=20	=20	=20	=20	=20	=20	=20	=20	=20
*tremolo	*	*	*tremolo	*	*	*	*	*	*
8AA/L	7 #	.	8c#X/L	.	(16a\LL	.	16a\LL	.	.
.	.	.	.	.	16b\)	.	16b\	.	.
8AA/	.	.	8c#X/	.	(16cc#X\	.	16cc#X\	.	.
.	.	.	.	.	16dd\)	.	16dd\	.	.
8AA/	.	.	8c#X/	.	(16ee\	.	16ee\	.	.
.	.	.	.	.	16ff#\)	.	16ff#\	.	.
8AA/J	.	.	8c#X/J	.	(16gg\	.	16gg\	.	.
.	.	.	.	.	16ee\JJ)	.	16ee\JJ	.	.
*Xtremolo	*	*	*Xtremolo	*	*	*	*	*	*
!LO:LB:g=original	!	!	!	!	!	!	!	!	!
!LO:TX:a:t=P:problem=mixed beam	!	!	!LO:TX:a:t=P:problem=mixed beam	!	!	!	!	!	!
8D\L	.	.	8d/L	.	8ff#\L	.	24ff#\LL	.	.
.	.	.	.	.	.	.	24ee\	.	.
.	.	.	.	.	.	.	24dd\	.	.
8F#\	6	.	8dd\	.	8ff#\	.	16aa\	.	.
.	.	.	.	.	.	.	16dd\JJ	.	.
8A\	5 4	.	8dd\	.	8ee\	.	8.eeT\	.	.
8AA/J	#	.	8cc#X\J	.	8ee\J	.	.	.	.
.	.	.	.	.	.	.	16ee\	-ti-	.
!	!	!	!	!	!	!	!LO:LB:g=original	!	!
=21	=21	=21	=21	=21	=21	=21	=21	=21	=21
!LO:TX:a:t=P:problem=mixed beam	!	!LO:DY:a:t=Forte.	!LO:TX:a:t=P:problem=mixed beam	!LO:DY:a:rj:t=Forte.	!	!LO:DY:a:rj:t=Forte&colon;	!	!	!
8D/L	.	f	8.f#/L	f	8.ddT\L	f	4dd\	-a	-do
8d\	.	.	.	.	.	.	.	.	.
.	.	.	16dd\Jk	.	16ff#\K	.	.	.	.
8c#X\	6	.	8.cc#X\L	.	8.eeT\	.	4r	.	.
8A\J	7	.	.	.	.	.	.	.	.
.	.	.	16ee\Jk	.	16gg\Jk	.	.	.	.
!	!	!	!LO:TX:a:t=P:problem=mixed beam	!	!	!	!	!	!
4d\	.	.	8.dd\L	.	8.ff#t\L	.	2r	.	.
.	.	.	16ee\K	.	16gg\Jk	.	.	.	.
!	!	!	!	!	!LO:TX:a:t=P:problem=mixed beam	!	!	!	!
8r	.	.	8ff#\	.	8aa\L	.	.	.	.
8D/	.	.	8a/J	.	8a/J	.	.	.	.
=22	=22	=22	=22	=22	=22	=22	=22	=22	=22
4G\	.	.	8g/L	.	8b\L	.	00r	.	.
!	!	!	!LO:TUP:b	!	!	!	!	!	!
.	.	.	24b/L	.	24gg\L	.	.	.	.
.	.	.	24a/	.	24ff#\	.	.	.	.
.	.	.	24g/JJ	.	24ee\JJ	.	.	.	.
!LO:TX:a:t=P:problem=mixed beam	!	!	!	!	!	!	!	!	!
8A\L	4	.	8f#/L	.	8dd\L	.	.	.	.
8AA/J	#	.	8e/J	.	8cc#X\J	.	.	.	.
.	.	.	8qqe/	.	8qqcc#/	.	.	.	.
!	!	!LO:DY:a:t=f&colon;	!	!	!	!	!	!	!
8.D\L	.	f	4f#/	.	4dd\	.	.	.	.
16B|\Jk	.	.	.	.	.	.	.	.	.
16A|\LL	.	.	4r	.	4r	.	.	.	.
16G|\	.	.	.	.	.	.	.	.	.
16F#|\	.	.	.	.	.	.	.	.	.
16E|\JJ	.	.	.	.	.	.	.	.	.
=23	=23	=23	=23	=23	=23	=23	=23	=23	=23
!	!	!LO:DY:a:t=p&colon;	!	!LO:DY:a:t=pia.	!	!	!	!	!
8D/L	.	p	8.A/L	p	8.dT/L	.	.	.	.
8D/	.	.	.	.	.	.	.	.	.
.	.	.	16d/Jk	.	16f#/K	.	.	.	.
!	!	!	!LO:SIC:v:s=8.c#/L	!	!	!	!	!	!
8C#X/	6	.	8.c/L	.	8.eT/	.	.	.	.
8AA/J	7	.	.	.	.	.	.	.	.
.	.	.	16e/Jk	.	16g/Jk	.	.	.	.
4D\	.	.	8.d/L	.	8.f#t/L	.	.	.	.
.	.	.	16e/K	.	16g/Jk	.	.	.	.
8r	.	.	8f#/	.	(8a\L	.	.	.	.
8D\	.	.	8f#/J	.	8dd\J)	.	.	.	.
!	!	!	!	!	!LO:LB:g=original	!	!	!	!
=24	=24	=24	=24	=24	=24	=24	=24	=24	=24
!LO:TX:a:t=P:problem=mixed beam	!	!	!LO:SIC:v:s=8cc#	!LO:DY:a:t=for.	!	!	!	!	!
8A\L	7	.	8cc\L	f	24cc#X\LL	.	.	.	.
.	.	.	.	.	24b\	.	.	.	.
.	.	.	.	.	24a\J	.	.	.	.
8c#X\	.	.	8ee\J	.	8gg\J	.	.	.	.
!	!	!	!LO:LB:g=original	!	!	!	!	!	!
8d\	.	.	8a\L	.	24ff#\LL	.	.	.	.
.	.	.	.	.	24ee\	.	.	.	.
.	.	.	.	.	24dd\	.	.	.	.
8D/J	.	.	(16ff#\L	.	16aa'\	.	.	.	.
.	.	.	16dd\JJ)	.	16ff#'\JJ	.	.	.	.
!LO:LB:g=original	!	!	!	!	!	!	!	!	!
!LO:TX:a:t=P:problem=mixed beam	!	!	!	!	!	!	!	!	!
8A\L	6 4	.	8dd\L	.	8ff#t\L	.	.	.	.
8AA/	5 #	.	8cc#X\J	.	8ee\J	.	.	.	.
8AA/J	.	.	8r	.	8r	.	.	.	.
8r	.	.	(16c#X/LL	.	(16ee\LL	.	.	.	.
.	.	.	16d/JJ)	.	16ff#\JJ)	.	.	.	.
=25	=25	=25	=25	=25	=25	=25	=25	=25	=25
*tremolo	*	*	*tremolo	*	*	*	*	*	*
8AA/L	7_ #	.	8e/L	.	24gg\LL	.	.	.	.
.	.	.	.	.	24ee\	.	.	.	.
.	.	.	.	.	24dd\	.	.	.	.
8AA/	.	.	8e/	.	24cc#X\	.	.	.	.
.	.	.	.	.	24b\	.	.	.	.
.	.	.	.	.	24a\JJ	.	.	.	.
.	.	.	.	.	8qqa/	.	.	.	.
8AA/	.	.	8e/	.	4g/	.	.	.	.
8AA/J	.	.	8e/J	.	.	.	.	.	.
*Xtremolo	*	*	*	*	*	*	*	*	*
!	!	!	!	!	!LO:TUP:r=8	!	!	!	!
!	!	!	!	!	!LO:TUP:b	!	!	!	!
8AA/L	.	.	8e/L	.	24g/LL	.	.	.	.
.	.	.	.	.	24e/	.	.	.	.
.	.	.	.	.	24d/	.	.	.	.
!	!	!	!	!	!LO:TUP:b	!	!	!	!
8AA/	.	.	8e/	.	24c#X/	.	.	.	.
.	.	.	.	.	24B/	.	.	.	.
.	.	.	.	.	24A/JJ	.	.	.	.
.	.	.	.	.	8qqA/	.	.	.	.
!LO:SIC:v:s=8.C#/	!	!	!	!	!	!	!	!	!
8C/	.	.	8e/	.	4G/	.	.	.	.
8AA/J	X	.	8e/J	.	.	.	.	.	.
*	*	*	*Xtremolo	*	*	*	*	*	*
=26	=26	=26	=26	=26	=26	=26	=26	=26	=26
!LO:TX:a:t=P:problem=mixed beam	!	!	!	!	!	!	!	!	!
8D\L	.	.	8ff#\L|	.	24ddd\LL	.	1r	.	.
.	.	.	.	.	24aa\	.	.	.	.
.	.	.	.	.	24aa#X\JJ	.	.	.	.
8G\	.	.	(16gg\L	.	24bb\LL	.	.	.	.
.	.	.	.	.	24gg\	.	.	.	.
.	.	.	16ee\JJ)	.	.	.	.	.	.
.	.	.	.	.	24ee\JJ	.	.	.	.
8A\	6 4	.	8dd\L	.	8dd\L	.	.	.	.
8AA/J	5 #	.	8cc#X\J	.	8eeT\J	.	.	.	.
!	!	!	!	!	!LO:LB:g=original	!	!	!	!
!	!	!	!	!	!LO:TUP:r=8	!	!	!	!
!	!	!	!	!	!LO:TYP:b	!	!	!	!
8D/L	.	.	8f#/L	.	24dd/LL	.	.	.	.
.	.	.	.	.	24a/	.	.	.	.
.	.	.	.	.	24a#X/	.	.	.	.
!	!	!	!	!	!LO:TUP:b	!	!	!	!
8GG/	.	.	8g/	.	24b/	.	.	.	.
.	.	.	.	.	24g/	.	.	.	.
.	.	.	.	.	24e/JJ	.	.	.	.
8AA/	4	.	8f#/	.	8d/L	.	.	.	.
8AA/J	#	.	8e/J	.	8eT/J	.	.	.	.
=27	=27	=27	=27	=27	=27	=27	=27	=27	=27
!	!	!LO:DY:a:t=Piano.	!LO:TX:a:t=P:problem=mixed beam	!LO:DY:a:t=piano.	!	!LO:DY:a:t=Piano.	!	!	!
8D/L	.	p	8.f#/L	p	8.ddT\L	p	8.ddT\	San-	Ad
8D/	.	.	.	.	.	.	.	.	.
.	.	.	16dd\Jk	.	16ff#\Jk	.	16ff#\	-cte	te
8C#X/	6	.	8.cc#Xt\L	.	8.eeT\L	.	(8.eeT\L	Pa-	cla-
8AA/J	7 #	.	.	.	.	.	.	.	.
.	.	.	16ee\Jk	.	16gg\Jk	.	16gg\Jk)	.	.
!	!	!	!LO:TX:a:t=P:problem=mixed beam	!	!LO:TX:a:t=P:problem=mixed beam	!	!	!	!
4D\	.	.	8.ddT\L	.	8.ff#t\L	.	(8.ff#t\L	-tro-	-ma-
.	.	.	16ee\K	.	16gg\K	.	16gg\Jk)	.	.
8r	.	.	8ff#\	.	8aa\	.	8aa,\	-ne	-mus
8D\	.	.	8f#/J	.	8a/J	.	8a/	Te	e-
=28	=28	=28	=28	=28	=28	=28	=28	=28	=28
4G\	.	.	8g/L	.	8b\L|	.	8b\	pu-	-xul-
!	!	!	!LO:TUP:b	!	!	!	!	!	!
.	.	.	24b/L	.	24gg\L	.	24gg\LL	-ra	-les
.	.	.	24a/	.	24ff#\	.	24ff#\	.	.
.	.	.	24g/JJ	.	24ee\JJ	.	24ee\JJ	.	.
!LO:TX:a:t=P:problem=mixed beam	!	!	!	!	!	!	!	!	!
8A\L	4	.	8f#/L	.	8dd\L	.	8.dd\L	Men-	e-
8AA/J	#	.	8e/J	.	8cc#X\J	.	.	.	.
.	.	.	.	.	.	.	16cc#X\Jk	.	.
.	.	.	.	.	.	.	8qqcc#/	.	.
!	!	!	!LO:LB:g=original	!LO:DY:a:t=f&colon;	!	!	!	!	!
4D\	.	.	8f#/L|	f	8dd\L	.	4dd\	-te	-vae
!	!	!	!	!	!	!LO:DY:a:t=for.	!	!	!
.	.	.	(16f#/L	.	(16a\L	f	.	.	.
.	.	.	16g/JJ)	.	16b\JJ)	.	.	.	.
4r	.	.	(16f#/LL	.	(16a/LL	.	4r	.	.
.	.	.	16e/)	.	16g/)	.	.	.	.
.	.	.	(16e/	.	(16g/	.	.	.	.
.	.	.	16d/JJ)	.	16f#/JJ)	.	.	.	.
!LO:LB:g=original	!	!	!	!	!	!	!LO:LB:g=original	!	!
=29	=29	=29	=29	=29	=29	=29	=29	=29	=29
!	!	!	!	!LO:DY:a:t=p&colon;	!	!LO:DY:a:t=pia.	!	!	!
8D/L	.	.	8.A/L	p	8.dT/L	p	8.d/	San-	Ad
8D/	.	.	.	.	.	.	.	.	.
.	.	.	16d/Jk	.	16f#/K	.	16f#/	-cte	te
!	!	!	!LO:TX:b:t=P:problem=# below	!	!	!	!	!	!
8C#X/	6	.	8.c#X/L	.	8.eT/	.	(8.eT/L	Pa-	sus-
8AA/J	7	.	.	.	.	.	.	.	.
.	.	.	16e/Jk	.	16g/Jk	.	16g/Jk)	.	.
!	!	!	!	!	!LO:LB:g=original	!	!	!	!
4D\	.	.	8.d/L	.	8.f#t/L	.	(8.f#t/L	-tro-	-pi-
.	.	.	16e/K	.	16g/Jk	.	16g/Jk)	.	-ra-
8r	.	.	8f#/	.	8a\L	.	8a,\	-ne	-mus
8D\	.	.	8f#/J	.	8dd\J	.	8dd\	Te	ge-
=30	=30	=30	=30	=30	=30	=30	=30	=30	=30
!LO:TX:a:t=P:problem=mixed beam	!	!	!	!	!	!	!	!	!
8A\L	7 #	.	(16a\LL	.	(16cc#X\LL	.	(16cc#X\LL	pi-	-men-
.	.	.	16cc#X\)	.	16ee\)	.	16ee\JJ)	.	.
8AA/J	.	.	(16cc#\	.	(16ee\	.	(16ee\LL	-o	-tes
.	.	.	16ee\JJ)	.	16gg\JJ)	.	16gg\JJ)	.	.
!LO:TX:a:t=P:problem=mixed beam	!	!	!	!	!	!	!	!	!
8D\L	.	.	(16dd\LL	.	(16ff#\LL	.	(16ff#\LL	Cor-	et
.	.	.	16a\)	.	16dd\)	.	16dd\)	.	.
8D\	.	.	(16ff#\	.	(16aa\	.	(16aa\	.	flen-
.	.	.	16dd\JJ)	.	16ff#\JJ)	.	16ff#\JJ)	.	.
.	.	.	8qqdd/	.	8qqff#/	.	8qqff#/	.	.
8A\	#	.	4cc#\	.	4ee\	.	4ee\	-de	-tes
8AA/J	.	.	.	.	.	.	.	.	.
4r	.	.	(16cc#\LL	.	(16ee\LL	.	4r	.	.
.	.	.	16b\)	.	16dd\)	.	.	.	.
.	.	.	(16b\	.	(16dd\	.	.	.	.
.	.	.	16a\JJ)	.	16cc#X\JJ)	.	.	.	.
=31	=31	=31	=31	=31	=31	=31	=31	=31	=31
*tremolo	*	*	*	*	*	*	*	*	*
8AA/L	7	.	8e/L	.	(16gg\LL	.	16.ggT\LL	ho-	in
.	.	.	.	.	16ee\)	.	.	.	.
.	.	.	.	.	.	.	32ee\K	.	.
8AA/	.	.	8e/J	.	(16ee\	.	16.eeT\	.	.
.	.	.	.	.	16cc#X\JJ)	.	.	.	.
.	.	.	.	.	.	.	32cc#X\JJk	.	.
!	!	!	!LO:TX:a:t=P:problem=mixed beam	!	!	!	!	!	!
8AA/	.	.	8e/L	.	(16cc#\LL	.	16.cc#t\LL	.	.
.	.	.	.	.	16a\)	.	.	.	.
.	.	.	.	.	.	.	32a\K	.	.
8AA/J	.	.	(16ee\L	.	16gg\	.	16.ggT\	.	.
.	.	.	16cc#X\JJ)	.	16ee\JJ	.	.	.	.
.	.	.	.	.	.	.	32ee\JJk	.	.
*Xtremolo	*	*	*	*	*	*	*	*	*
!	!	!	!	!	!	!	!LO:LB:g=original	!	!
8D\	.	.	8.ddT\L	.	8.ff#t\L	.	8.ff#t\L	-no-	.
8r	.	.	.	.	.	.	.	.	.
.	.	.	16ee\Jk	.	16gg\Jk	.	16gg\Jk	.	.
16F#\LL	6_ 3_	.	4ff#\	.	4aa\	.	4aa\	-ro	hac
16A\	.	.	.	.	.	.	.	.	.
16F#\	.	.	.	.	.	.	.	.	.
16D\JJ	.	.	.	.	.	.	.	.	.
!	!	!	!LO:LB:g=original	!	!	!	!	!	!
=32	=32	=32	=32	=32	=32	=32	=32	=32	=32
2AA/	7 #	.	8e/L	.	8ee\L	.	24gg\LL	at-	la-
.	.	.	.	.	.	.	24ff#\	.	.
.	.	.	.	.	.	.	24ee\	.	.
.	.	.	8e/J	.	8ee\	.	24ee\	.	.
.	.	.	.	.	.	.	24dd\	.	.
.	.	.	.	.	.	.	24cc#X\JJ	.	.
!	!	!	!LO:TX:a:t=P:problem=mixed beam	!	!	!	!	!	!
.	.	.	8e/L	.	8ee\	.	24cc#\LL	.	-chri-
.	.	.	.	.	.	.	24b\	.	.
.	.	.	.	.	.	.	24a\	.	.
.	.	.	(16ee\L	.	8ee\J	.	16gg\	.	.
.	.	.	16cc#X\JJ)	.	.	.	16ee\JJ	.	.
!	!	!	!LO:TX:a:t=P:problem=mixed beam	!	!	!	!	!	!
8D\L	.	.	(16dd\LL	.	(16ff#\LL	.	16ff#\LL	.	.
.	.	.	16ff#\)	.	16aa\)	.	16aa\	.	.
8A\J	#	.	(16e/	.	(16cc\	.	16cc#\	.	.
.	.	.	16g/JJ)	.	16ee\JJ)	.	16ee\JJ	.	-mar-
!LO:TX:a:t=P:problem=mixed beam	!	!	!	!	!	!	!	!	!
8d\L	.	.	8f#/L	.	8dd\L	.	8dd,\	-qve	-um
8D/J	.	.	8f#/J	.	8a\J	.	8a\	o-	lach-
!	!	!	!	!	!LO:LB:g=original	!	!	!	!
=33	=33	=33	=33	=33	=33	=33	=33	=33	=33
4G\	.	.	8g/L	.	8b\L	.	8b\L	.	-ri-
!	!	!	!LO:TUP:b	!	!	!	!	!	!
.	.	.	24b/L	.	24gg\L	.	24gg\L	.	ma-
.	.	.	24a/	.	24ff#\	.	24ff#\	.	.
.	.	.	24g/JJ	.	24ee\JJ	.	24ee\JJ	.	.
!LO:TX:a:t=P:problem=mixed beam	!	!	!	!	!	!	!	!	!
8A\L	6 4	.	8f#/L	.	8dd\L	.	(8dd\L	.	-rum
8AA/J	5 #	.	8e/J	.	8cc#X\J	.	8cc#X\J)	.	va-
.	.	.	.	.	.	.	8qqcc#/	.	.
!LO:LB:g=original	!	!	!	!LO:DY:a:t=for.	!	!LO:DY:a:t=for.	!	!	!
4D\	.	.	8f#/L|	f	8dd\L	f	4dd\	-ro	-le
.	.	.	(16ccn/L	.	(16ee\L	.	.	.	.
.	.	.	16e/JJ)	.	16ccn\JJ)	.	.	.	.
4r	.	.	16d/LL	.	(16b/LL	.	4r	.	.
.	.	.	16c/	.	16a/)	.	.	.	.
.	.	.	16B/	.	(16g/	.	.	.	.
.	.	.	16A/JJ	.	16f#/JJ)	.	.	.	.
!	!	!	!	!	!	!	!LO:LB:g=original	!	!
=34	=34	=34	=34	=34	=34	=34	=34	=34	=34
!LO:TX:a:t=P:problem=mixed beam	!	!	!	!LO:DY:a:rj:t=pia.	!	!LO:DY:a:t=piano.	!	!	!
8GG/L	.	.	8.B/L	p	8.gT/L	p	8.gT\	San-	E-
8G\	.	.	.	.	.	.	.	.	.
.	.	.	16g/K	.	16b/K	.	16b\	-cte	-ja
8F#\	6	.	8.f#/	.	8.aT/	.	8.aT\L	Pa-	er-
8D\J	7	.	.	.	.	.	.	.	.
.	.	.	16a/Jk	.	16cc/Jk	.	16cc\Jk	.	.
4G\	.	.	8.g/L	.	8.b\L	.	8.bt\L	-tro-	.
.	.	.	16a/Jk	.	16cc\Jk	.	16cc\Jk	.	.
8r	.	.	4b\	.	4dd\	.	4dd\	-ne	-go
8G\	.	.	.	.	.	.	.	.	.
=35	=35	=35	=35	=35	=35	=35	=35	=35	=35
*tremolo	*	*	*tremolo	*	*	*	*	*	*
*	*	*	*2\right	*	*	*	*	*	*
8G\L	n7	.	8b\L	.	(16ffn\LL	.	(16ffn\LL	te	ad-
.	.	.	.	.	16dd\)	.	16ee\JJ)	.	.
8G\	.	.	8b\	.	(16dd\	.	(16dd\LL	ho-	-vo-
.	.	.	.	.	16b\JJ)	.	16b\JJ)	.	.
8G\	.	.	8b\	.	(16b/LL	.	(16b/LL	-no-	-ca-
.	.	.	.	.	16g/)	.	16g/)	.	.
8G\J	.	.	8b\J	.	(16g/	.	(16g/	.	.
.	.	.	.	.	16f#/JJ)	.	16fn/JJ)	.	.
.	.	.	.	.	.	.	8qqf/	.	.
*Xtremolo	*	*	*Xtremolo	*	*	*	*	*	*
!	!	!	!	!LO:DY:a:t=f&colon;	!LO:TX:a:t=P:problem=mixed beam	!LO:DY:a:t=f&colon;	!	!	!
8C/	.	.	(16cc/LL	f	16e/LL	f	4e/	-ro,	-ta
.	.	.	16g/)	.	16ee\|	.	.	.	.
8r	.	.	(16g/	.	(16ee\	.	.	.	.
.	.	.	16fn/JJ)	.	16dd\JJ)	.	.	.	.
!	!	!	!LO:LB:g=original	!	!	!	!	!	!
.	.	.	8qqf/	.	.	.	.	.	.
8C/L	.	.	4e/	.	4cc\	.	4r	.	.
8BB/J	6\_ 3_	.	.	.	.	.	.	.	.
=36	=36	=36	=36	=36	=36	=36	=36	=36	=36
!LO:TX:a:t=P:problem=mixed beam	!	!	!	!LO:DY:a:t=pia.	!	!LO:DY:a:t=p&colon;	!	!	!
8AA/L	.	.	8.c#X/L	p	8.aT/L	p	8.aT\	San-	e-
8A\	.	.	.	.	.	.	.	.	.
!	!	!	!	!	!	!	!LO:N:vis=8	!	!
.	X X	.	16a/Jk	.	16cc#X/Jk	.	16cc#\	-cte	-ja
8G#X\	6_	.	8.g#X/L	.	8.bT\L	.	(8.bT\L	Pa-	er-
8E\J	x 7_	.	.	.	.	.	.	.	.
.	.	.	16b/Jk	.	16dd\Jk	.	16dd\Jk)	.	.
!	!	!	!	!	!LO:LB:g=original	!	!	!	!
4A\	.	.	8.a\L	.	8.cc#Xt\L	.	(8.ccT\L	-tro-	.
.	X X	.	16b\Jk	.	16dd\Jk	.	16dd\Jk)	.	.
!	!	!	!LO:SIC:v:s=4cc#\	!	!	!	!LO:LB:g=original	!	!
8r	.	.	4cc\	.	4ee\	.	4ee\	-ne	-go
8A\	.	.	.	.	.	.	.	.	.
=37	=37	=37	=37	=37	=37	=37	=37	=37	=37
*tremolo	*	*	*tremolo	*	*	*	*	*	*
8A\L	7 #	.	8cc#X\L	.	(16gg\LL	.	(16gg\LL	Te	ad-
.	.	.	.	.	16ee\)	.	16ee\JJ)	.	.
8A\	.	.	8cc#X\	.	(16ee\	.	(16ee\LL	ho-	-vo-
.	.	.	.	.	16cc#X\JJ)	.	16cc#X\JJ)	.	.
8A\	.	.	8cc#X\	.	(16cc#/LL	.	16cc#\LL	-no-	-ca-
.	.	.	.	.	16a/)	.	16a\	.	.
8A\J	.	.	8cc#X\J	.	(16a/	.	16a\	.	.
.	.	.	.	.	16g/JJ)	.	16g\JJ	.	.
.	.	.	.	.	.	.	8qqg/	.	.
*Xtremolo	*	*	*Xtremolo	*	*	*	*	*	*
!	!	!	!	!LO:DY:a:t=f&colon;	!LO:TX:a:t=P:problem=mixed beam	!LO:DY:a:t=f&colon;	!	!	!
4D\	.	.	16dd\LL	f	16f#/LL	f	4f#/	-ro	-ta
.	.	.	16a\|	.	16ff#\|	.	.	.	.
.	.	.	(16a\	.	(16ff#\	.	.	.	.
.	.	.	16g\JJ)	.	16ee\JJ)	.	.	.	.
!	!	!	!LO:TX:a:t=P:problem=mixed beam	!LO:DY:a:t=p&colon;	!	!LO:DY:a:t=pia.	!	!	!
4r	.	.	8f#/L	p	8dd\L|	p	8r	.	.
.	.	.	(16dd\L	.	(16gg\L	.	(16gg\LL	ho-	no-
.	.	.	16b\JJ)	.	16dd\JJ)	.	16dd\JJ)	.	.
=38	=38	=38	=38	=38	=38	=38	=38	=38	=38
8r	.	.	(16b/LL	.	(16dd\LL	.	(16dd\LL	-no-	.
.	.	.	16a/J)	.	16ccn\J)	.	16cc\JJ)	.	.
16D\LL	.	.	8a/J|	.	8cc\J	.	8cc\)	-ro	-stra
16E\J	.	.	.	.	.	.	.	.	.
8F#\J	6 #	.	8r	.	8r	.	8r	.	.
8r	.	.	(16cc\LL	.	(16aa\LL	.	(16aa\LL	ac	il-
.	.	.	16a\JJ)	.	16cc\JJ)	.	16cc\JJ)	.	.
!LO:LB:g=original	!	!	!	!	!	!	!	!	!
8r	.	.	(16a/LL	.	(16cc\LL	.	(16cc\LL	o-	.
.	.	.	16g/J)	.	16b\J)	.	16b\JJ)	.	.
16G\LL	.	.	8g/J|	.	8b\J	.	8b\	-ro	-los
16A\J	.	.	.	.	.	.	.	.	.
8B\J	.	.	8r	.	8.r	.	8.r	.	.
8r	.	.	8e/	.	.	.	.	.	.
.	.	.	.	.	16gg\	.	16gg\	dig-	tu-
=39	=39	=39	=39	=39	=39	=39	=39	=39	=39
4r	.	.	8.eT/L	.	8.ggT\L	.	8.gg\L	-ni-	.
.	.	.	(32d/LL	.	(32ff#\LL	.	(32ff#\LL	-ſsi-	.
.	.	.	32c/JJJ)	.	32ee\JJJ)	.	32ee\JJJ)	.	.
!LO:TX:a:t=P:problem=mixed beam	!	!	!LO:LB:g=original	!	!	!	!	!	!
8G\L	.	.	8B/L	.	8dd\	.	8dd\	-me	-os
!	!	!	!	!	!	!	!LO:LB:g=original	!	!
8GG/J	.	.	16r	.	16r	.	16r	.	.
.	.	.	16c/Jk	.	16ee\	.	16ee\	Pa-	tu-
4r	.	.	8.cT/L	.	8.eeT\L	.	8.ee\L	-tro-	.
.	.	.	(32B/LL	.	(32dd\LL	.	(32dd\LL	.	.
.	.	.	32A/JJJ)	.	32cc\JJJ)	.	32cc\JJJ)	.	.
!LO:TX:a:t=P:problem=mixed beam	!	!	!	!	!LO:TX:b:i:t=volti citiſs	!	!	!	!
8G\L	.	.	8G/	.	8b\	.	8b\	-ne	-os
8GG/J	.	.	8ryy	.	8r	.	8r	.	.
!	!	!	!	!	!LO:PB:g=original	!	!	!	!
=40	=40	=40	=40	=40	=40	=40	=40	=40	=40
.	.	.	.	.	8qqaa/	.	.	.	.
*tremolo	*	*	*	*	*	*	*	*	*
8G\L	.	.	8b/L	.	4gg\	.	4gg\	no-	mi-
8G\	.	.	8b/	.	.	.	.	.	.
8G\	.	.	8b/	.	24gg\LL	.	24gg\LL	.	-se-
.	.	.	.	.	24ff#\	.	24ff#\	.	.
.	.	.	.	.	24ee\	.	24ee\	.	-ri-
8G\J	.	.	8g/J	.	24dd\	.	24dd\	.	.
.	.	.	.	.	24cc\	.	24cc\	.	-cor-
.	.	.	.	.	24b\JJ	.	24b\JJ	.	.
.	.	.	8qqg/	.	8qqb/	.	8qqb/	.	.
*Xtremolo	*	*	*	*	*	*	*	*	*
8D\L	.	.	4f#/	.	4a/	.	4a\	-ster	-des
16F#\L	.	.	.	.	.	.	.	.	.
16A\JJ	.	.	.	.	.	.	.	.	.
8d\	.	.	8r	.	8r	.	8r	.	.
8r	.	.	8b\	.	8dd\	.	8dd\	con-	o-
=41	=41	=41	=41	=41	=41	=41	=41	=41	=41
!	!	!	!LO:TX:a:t=P:problem=mixed beam	!	!	!	!	!	!
8r	.	.	8cc\L	.	24ee\LL	.	24ee\LL	-ser-	.
.	.	.	.	.	24dd\	.	24dd\	.	.
.	.	.	.	.	24cc\JJ	.	24cc\JJ	.	.
8C/L	.	.	8e/	.	8.gg\L	.	8.gg\L	.	.
8C/	.	.	8e/	.	.	.	.	.	.
.	.	.	.	.	16ee\L	.	16ee\L	.	.
8C/J	.	.	8e/J	.	16dd\	.	16dd\	.	.
.	.	.	.	.	16cc\JJ	.	16cc\JJ	.	.
8r	.	.	8r	.	24dd\LL	.	24dd\LL	.	.
.	.	.	.	.	24cc\	.	24cc\	.	.
.	.	.	.	.	24b\JJ	.	24b\J	.	.
8GG/L	.	.	8d/L	.	8.gg\L	.	8.gg\J	.	.
8BB/	.	.	8d/	.	.	.	.	.	.
.	.	.	.	.	16dd\L	.	16dd\LL	.	.
8GG/J	.	.	8d/J	.	16cc\	.	16cc\	.	.
.	.	.	.	.	16b\JJ	.	16b\JJ	.	.
!	!	!	!	!	!	!	!LO:PB:g=original	!	!
=42	=42	=42	=42	=42	=42	=42	=42	=42	=42
8r	.	.	8r	.	24cc\LL	.	24cc\LL	.	.
.	.	.	.	.	24b\	.	24b\	.	.
.	.	.	.	.	24a\JJ	.	24a\JJ	.	.
8D\L	7	.	8cc\L	.	8.aa\L	.	8.aaT\L	.	.
8F#\	.	.	8cc\	.	.	.	.	.	.
.	.	.	.	.	16ff#\L	.	16ff#\L	.	.
8D\J	.	.	8cc\J	.	16dd\	.	16dd\	.	.
.	.	.	.	.	16cc\JJ	.	16cc\JJ	.	.
4G\	.	.	8b\	.	16b\LL	.	(16b\LL	.	.
.	.	.	.	.	16dd\JJ	.	16dd\JJ)	.	.
.	.	.	.	.	8qqff#/	.	.	.	.
.	.	.	4b\	.	4gg\	.	4gg\	.	.
8r	.	.	.	.	.	.	.	.	.
8GG/	.	.	8g/	.	8b/	.	8b\	.	-cu-
=43	=43	=43	=43	=43	=43	=43	=43	=43	=43
.	.	.	.	.	8qqb/	.	8qqb/	.	.
16D\LL	.	.	16f#/LL	.	4a/	.	4a\	-va	-los
16E\	.	.	16g/	.	.	.	.	.	.
16F#\	.	.	16a/	.	.	.	.	.	.
16E\J	.	.	16g/JJ	.	.	.	.	.	.
8D\J	.	.	8f#/L	.	8r	.	8r	.	.
8r	.	.	8b/J	.	8dd\	.	8dd\	in	ad
!LO:LB:g=original	!	!	!LO:LB:g=original	!	!LO:LB:g=original	!	!	!	!
!LO:TX:a:t=P:problem=mixed beam	!	!	!	!	!LO:TUP:r=8	!	!LO:TUP:r=8	!	!
8C/L	.	.	8ee\L	.	24ee\LL	.	24ee\LL	gra-	nos
.	.	.	.	.	24dd\	.	24dd\	.	.
.	.	.	.	.	24cc\	.	24cc\	.	.
8c\	.	.	8ee\	.	24cc\	.	24cc\	.	.
.	.	.	.	.	24b\	.	24b\	.	.
.	.	.	.	.	24a\JJ	.	24a\JJ	.	.
8c\	.	.	8ee\	.	16a\LL	.	16a\	.	con-
.	.	.	.	.	16cc\J	.	16cc\	-ti-	-ver-
8c\J	.	.	8ee\J	.	8ee\J	.	8ee\	-a	-te
=44	=44	=44	=44	=44	=44	=44	=44	=44	=44
*tremolo	*	*	*tremolo	*	*	*	*	*	*
8B\L	6 3	.	8dd\L	.	24dd\LL	.	24dd\LL	gra-	et
.	.	.	.	.	24cc\	.	24cc\	.	.
.	.	.	.	.	24b\	.	24b\	.	.
8B\	.	.	8dd\	.	24b\	.	24b\	.	.
.	.	.	.	.	24a\	.	24a\	.	.
.	.	.	.	.	24g\JJ	.	24g\JJ	.	.
8B\	.	.	8dd\	.	(16g\LL	.	16g\	.	Je-
.	.	.	.	.	16b\J)	.	16b\	-ti-	.
8B\J	.	.	8dd\J	.	8dd\J	.	8dd\	-a	-sum
.	.	.	.	.	8qqdd/	.	.	.	.
*Xtremolo	*	*	*Xtremolo	*	*	*	*	*	*
!	!	!	!	!	!	!	!LO:LB:g=original	!	!
8A\L	6 3	.	8cc\L	.	4cc\	.	4cc\	tu-	Be-
8D\	7_	.	8cc\	.	.	.	.	.	.
8G\	.	.	8b\	.	24b\LL	.	24b\LL	.	-ne-
.	.	.	.	.	24cc\	.	24cc\	.	.
.	.	.	.	.	24dd\	.	24dd\	.	.
8G\J	.	.	8b\J	.	24ee\	.	24ee\	.	.
.	.	.	.	.	24ff#\	.	24ff#\	.	-di-
.	.	.	.	.	24gg\JJ	.	24gg\JJ	.	.
=45	=45	=45	=45	=45	=45	=45	=45	=45	=45
.	.	.	.	.	8qqb/	.	8qqb/	.	.
16F#\LL	6_ 3_	.	16a/LL	.	4a/	.	4a\	-a,	-ctum
16E\	.	.	16g/	.	.	.	.	.	.
16D\	.	.	16f#/	.	.	.	.	.	.
16E\JJ	.	.	16g/JJ	.	.	.	.	.	.
8F#\L	.	.	8a/L	.	8r	.	8r	.	.
8D\J	7	.	8a/J	.	8cc\	.	8cc\	O	fru-
!	!	!	!	!	!	!	!LO:TUP:r=8	!	!
8G\L	.	.	8b/L	.	8b\L	.	24b\LL	ma-	.
.	.	.	.	.	.	.	24a\	.	.
.	.	.	.	.	.	.	24b\	.	.
8A\	.	.	8a/	.	8cc\J	.	24cc\	.	.
.	.	.	.	.	.	.	24b\	.	.
.	.	.	.	.	.	.	24cc\JJ	.	.
8B\	.	.	8g/	.	8dd\L|	.	24dd\LL	.	.
.	.	.	.	.	.	.	24cc\	.	.
.	.	.	.	.	.	.	24dd\	.	.
8c\J	.	.	8g/J	.	(16ee\L	.	16ee\	.	.
.	.	.	.	.	16cc\JJ)	.	16cc\JJ	.	.
=46	=46	=46	=46	=46	=46	=46	=46	=46	=46
!	!	!	!	!	!	!	!LO:TX:a:t=P:problem=mixed beam	!	!
4d\	4	.	8g/L	.	8b/L	.	16b\LL	.	.
.	.	.	.	.	.	.	16dd\	.	.
.	.	.	8g/	.	8b/	.	16gg\	.	.
.	.	.	.	.	.	.	16g/JJ	.	.
4D/	3	.	8g/	.	8a/	.	4aT\	.	.
.	.	.	8f#/J	.	8a/J	.	.	.	.
!	!	!	!	!	!LO:LB:g=original	!	!	!	!
4G\	.	.	4g/	.	4b 4d/	.	8g,/	-gne	-ctum
.	.	.	.	.	.	.	8gg\	San-	ve-
4r	.	.	4r	.	4r	.	(32ff#\KLL	.	.
.	.	.	.	.	.	.	16.ee\)	.	.
.	.	.	.	.	.	.	(32dd\K	.	.
.	.	.	.	.	.	.	16.cc\JJ)	.	.
!	!	!	!	!	!	!	!LO:LB:g=original	!	!
=47	=47	=47	=47	=47	=47	=47	=47	=47	=47
4GG/	.	.	4b\	.	4b 4d/	.	(8b\L	.	.
.	.	.	.	.	.	.	8ee\J)	.	.
4r	.	.	4r	.	4r	.	(16dd\LL	.	.
.	.	.	.	.	.	.	16cc\JJ)	.	.
.	.	.	.	.	.	.	(16b\LL	-cte	-a-
.	.	.	.	.	.	.	16a\JJ)	.	.
2D;;\	.	.	2r;;	.	4b 4d/	.	24b\LL	Pa-	.
.	.	.	.	.	.	.	24dd\	.	.
.	.	.	.	.	.	.	24cc\	.	.
.	.	.	.	.	.	.	24b\	.	.
.	.	.	.	.	.	.	24a\	.	.
.	.	.	.	.	.	.	24g\JJ	.	-tris
!	!	!	!LO:TX:b:i:t=volti \nsubito	!	!	!	!	!	!
.	.	.	.	.	4r;;	.	4aT\	-tro-	tu-
!	!	!	!LO:PB:g=original	!	!	!	!	!	!
=48	=48	=48	=48	=48	=48	=48	=48	=48	=48
!LO:TX:a:t=P:problem=mixed beam	!	!LO:DY:a:t=Forte	!	!LO:DY:a:rj:t=Forte.	!	!LO:DY:a:t=Forte&colon;	!	!	!
8GG/L	.	f	8.Bt/L	f	8.gT/L	f	4g\	-ne	-i
8G\	.	.	.	.	.	.	.	.	.
.	.	.	16g/K	.	16b/K	.	.	.	.
8F#\	6	.	8.f#t/	.	8.aT/	.	4r	.	.
8D\J	7	.	.	.	.	.	.	.	.
.	.	.	16a/Jk	.	16cc/Jk	.	.	.	.
!LO:LB:g=original	!	!	!	!	!LO:TX:a:t=P:problem=mixed beam	!	!	!	!
4G\	.	.	8.gT/L	.	8.bt\L	.	2r	.	.
.	.	.	16a/Jk	.	16cc\K	.	.	.	.
8r	.	.	8b/L	.	8dd\	.	.	.	.
8GG/	.	.	8d/J	.	8d/J	.	.	.	.
=49	=49	=49	=49	=49	=49	=49	=49	=49	=49
4C/	.	.	8c/L	.	8e\L	.	00r	.	.
!	!	!	!LO:TUP:b	!	!	!	!	!	!
.	.	.	24e/L	.	24cc\L	.	.	.	.
.	.	.	24d/	.	24b\	.	.	.	.
.	.	.	24c/JJ	.	24a\JJ	.	.	.	.
!LO:TX:a:t=P:problem=mixed beam	!	!	!	!	!	!	!	!	!
8D\L	4	.	8B/L	.	8g/L	.	.	.	.
8DD/J	3	.	8A/J	.	8f#/J	.	.	.	.
.	.	.	.	.	8qqf#/	.	.	.	.
!LO:TX:a:t=P:problem=mixed beam	!	!	!	!	!	!	!	!	!
16GG/LL	.	.	4B/	.	4g/	.	.	.	.
16G|\	.	.	.	.	.	.	.	.	.
16F#|\	.	.	.	.	.	.	.	.	.
16G|\JJ	.	.	.	.	.	.	.	.	.
16D|\LL	.	.	4r	.	4r	.	.	.	.
16G|\	.	.	.	.	.	.	.	.	.
16BB|\	.	.	.	.	.	.	.	.	.
16D|\JJ	.	.	.	.	.	.	.	.	.
=50	=50	=50	=50	=50	=50	=50	=50	=50	=50
!LO:TX:a:t=P:problem=mixed beam	!	!	!	!LO:DY:a:t=p&colon;	!	!LO:DY:a:t=pia.	!	!	!
8GG/L	.	.	8.B/L	p	8.GT/L	p	.	.	.
8G\	.	.	.	.	.	.	.	.	.
.	.	.	16g/Jk	.	16B/Jk	.	.	.	.
8F#\	6	.	8.f#/L	.	8.AT/L	.	.	.	.
8D\J	7	.	.	.	.	.	.	.	.
.	.	.	16a/Jk	.	16c/Jk	.	.	.	.
4G\	.	.	8.g/L	.	8.Bt/L	.	.	.	.
.	.	.	16a/Jk	.	16c/Jk	.	.	.	.
!	!	!	!LO:TX:a:t=P:problem=mixed beam	!	!LO:LB:g=original	!	!	!	!
8r	.	.	8b\L	.	8d/L	.	.	.	.
8GG/	.	.	8d/J	.	8g/J	.	.	.	.
=51	=51	=51	=51	=51	=51	=51	=51	=51	=51
!	!	!	!	!	!LO:TUP:b	!	!	!	!
8D\L	7_	.	8f#/L	.	24f#/LL	.	.	.	.
.	.	.	.	.	24a/	.	.	.	.
.	.	.	.	.	24cc/JJ	.	.	.	.
8F#\	.	.	8a/J	.	24ff#\LL	.	.	.	.
.	.	.	.	.	24aa\	.	.	.	.
.	.	.	.	.	24ccc\JJ	.	.	.	.
!	!	!	!	!	!LO:TUP:b	!	!	!	!
8G\	.	.	8b\L	.	24g/LL	.	.	.	.
.	.	.	.	.	24b/	.	.	.	.
.	.	.	.	.	24dd/JJ	.	.	.	.
8B\J	6	.	8gg\J	.	24gg\LL	.	.	.	.
.	.	.	.	.	24bb\	.	.	.	.
.	.	.	.	.	24ddd\JJ	.	.	.	.
.	.	.	8qqgg/	.	8qqbb/	.	.	.	.
16d\LL	.	.	4ff#\	.	4aa\	.	.	.	.
16A\	.	.	.	.	.	.	.	.	.
16F#\	.	.	.	.	.	.	.	.	.
16A\JJ	.	.	.	.	.	.	.	.	.
8D/	.	.	8r	.	8r	.	.	.	.
!	!	!	!LO:TX:a:t=P:problem=mixed beam	!	!	!	!	!	!
8r	.	.	16.dd\LL	.	16.dd\LL	.	.	.	.
.	.	.	32f#/JJk	.	32a\JJk	.	.	.	.
!	!	!	!LO:LB:g=original	!	!	!	!	!	!
=52	=52	=52	=52	=52	=52	=52	=52	=52	=52
8r	.	.	(16f#/LL	.	(16a/LL	.	.	.	.
.	.	.	16e/J)	.	16g/J)	.	.	.	.
16AA/LL	#	.	8e/J|	.	8g/J	.	.	.	.
16BB/J	.	.	.	.	.	.	.	.	.
8C#X/J	6	.	8r	.	8r	.	.	.	.
!	!	!	!	!	!LO:TX:a:t=P:problem=mixed beam	!	!	!	!
8r	.	.	16.g/LL	.	16.ee\LL	.	.	.	.
.	.	.	32e/JJk	.	32g/JJk	.	.	.	.
!LO:PB:g=original	!	!	!	!	!	!	!	!	!
8r	.	.	(16e/LL	.	(16g/LL	.	.	.	.
.	.	.	16d/J)	.	16f#/J)	.	.	.	.
16D\LL	.	.	8d/J	.	8f#/J	.	.	.	.
16E\J	.	.	.	.	.	.	.	.	.
8F#\J	6 3	.	8r	.	8r	.	.	.	.
8r	.	.	8f#/	.	8a/	.	.	.	.
=53	=53	=53	=53	=53	=53	=53	=53	=53	=53
!	!	!	!	!	!LO:TX:a:t=P:problem=mixed beam	!	!	!	!
4G\	.	.	8b\L	.	8b/L	.	0r	.	.
.	.	.	24gg\L	.	24bb\L	.	.	.	.
.	.	.	24ff#\	.	24aa\	.	.	.	.
.	.	.	24ee\JJ	.	24gg\JJ	.	.	.	.
!LO:TX:a:t=P:problem=mixed beam	!	!	!LO:TX:a:t=P:problem=mixed beam	!	!LO:LB:g=original	!	!	!	!
!	!	!	!LO:TUP:r=8	!	!	!	!	!	!
!	!	!	!LO:TUP:a	!	!	!	!	!	!
8A\L	6 4	.	24dd\LL	.	24ff#\LL	.	.	.	.
.	.	.	24ee\	.	24gg\	.	.	.	.
.	.	.	24ff#\	.	24aa\JJ	.	.	.	.
!	!	!	!LO:TUP:b	!	!	!	!	!	!
8AA/J	5 #	.	24e/	.	24cc#X\LL	.	.	.	.
.	.	.	24f#/	.	24dd\	.	.	.	.
.	.	.	24g/JJ	.	24ee\JJ	.	.	.	.
.	.	.	8qqg/	.	8qqee/	.	.	.	.
16r	.	.	4f#/	.	4dd\	.	.	.	.
16D\LL	.	.	.	.	.	.	.	.	.
16F#\	.	.	.	.	.	.	.	.	.
16A\JJ	.	.	.	.	.	.	.	.	.
8d\	.	.	8r	.	8r	.	.	.	.
8r	.	.	(16f#/LL	.	(16aa\LL	.	.	.	.
.	.	.	16g/JJ)	.	16bb\JJ)	.	.	.	.
=54	=54	=54	=54	=54	=54	=54	=54	=54	=54
*tremolo	*	*	*	*	*	*	*	*	*
8D\L	7_	.	8a/L	.	24ccc\LL	.	.	.	.
.	.	.	.	.	24aa\	.	.	.	.
.	.	.	.	.	24gg\	.	.	.	.
8D\	.	.	8a/	.	24ff#\	.	.	.	.
.	.	.	.	.	24ee\	.	.	.	.
.	.	.	.	.	24dd\JJ	.	.	.	.
.	.	.	.	.	8qqdd/	.	.	.	.
8D\	.	.	8a/	.	4cc\	.	.	.	.
8D\J	.	.	8a/J	.	.	.	.	.	.
*Xtremolo	*	*	*tremolo	*	*Xtuplet	*	*	*	*
8D\L	.	.	8a/L	.	24cc/LL	.	.	.	.
.	.	.	.	.	24a/	.	.	.	.
.	.	.	.	.	24g/	.	.	.	.
8D\	.	.	8a/	.	24f#/	.	.	.	.
.	.	.	.	.	24e/	.	.	.	.
.	.	.	.	.	24d/JJ	.	.	.	.
.	.	.	.	.	8qqd/	.	.	.	.
8F#\	.	.	8a/	.	4c/	.	.	.	.
8D\J	X	.	8a/J	.	.	.	.	.	.
*	*	*	*Xtremolo	*	*	*	*	*	*
=55	=55	=55	=55	=55	=55	=55	=55	=55	=55
*	*	*	*	*	*tuplet	*	*	*	*
!LO:TX:a:t=P:problem=mixed beam	!	!	!	!	!LO:TUP:r=8	!	!LO:TX:a:t=Finis.	!	!
8G\L	.	.	8b\L|	.	24gg\LL	.	1r	.	.
.	.	.	.	.	24dd\	.	.	.	.
.	.	.	.	.	24dd#X\	.	.	.	.
8C\	.	.	(16cc\L	.	24ee\	.	.	.	.
.	.	.	.	.	24cc\	.	.	.	.
.	.	.	16a\JJ)	.	.	.	.	.	.
.	.	.	.	.	24a\JJ	.	.	.	.
8D\	4	.	8g/L	.	8g/L	.	.	.	.
8DD/J	3	.	8f#/J	.	8aT/J	.	.	.	.
.	.	.	8qqf#/	.	.	.	.	.	.
16.GG\LL	.	.	4g/	.	4g/	.	.	.	.
32G|\K	.	.	.	.	.	.	.	.	.
16.BB|\	.	.	.	.	.	.	.	.	.
32D|\JJk	.	.	.	.	.	.	.	.	.
!LO:TX:a:t=Finis	!	!	!LO:TX:a:t=Finis	!	!LO:TX:a:t=Finis	!	!	!	!
4GG/	.	.	4r	.	4r	.	.	.	.
!LO:LB:g=original	!	!	!LO:LB:g=original	!	!LO:LB:g=original	!	!	!	!
=56||	=56||	=56||	=56||	=56||	=56||	=56||	=56||	=56||	=56||
*>B	*	*>B	*>B	*>B	*>B	*>B	*>B	*>B	*>B
!	!	!LO:DY:a:rj:t=piano.	!	!LO:DY:a:t=Piano.	!	!LO:DY:a:rj:t=Piano	!	!	!
8E\L	.	p	8.B/L	p	8.eT/L	p	(8.e/L	Lau-	no-
8E\	.	.	.	.	.	.	.	.	.
.	.	.	16e/Jk	.	16g/K	.	16g/Jk)	.	.
8D#X\	6 3	.	8.d#X/L	.	8.f#t/	.	8.f#/L	-des	-bis
8BB\J	7 #	.	.	.	.	.	.	.	.
.	.	.	16f#/Jk	.	16a/Jk	.	16a/Jk	.	.
8E\L	.	.	(16e/LL	.	(16g/LL	.	(16g/LL	tu-	.
.	.	.	16f#/JJ)	.	16a/JJ)	.	16a/JJ)	.	.
16E\L	.	.	4g/	.	4b\	.	4b,\	-as	post
16F#\JJ	.	.	.	.	.	.	.	.	.
8G\L	.	.	.	.	.	.	.	.	.
8E\J	.	.	8b\	.	8ee\	.	8ee\	can-	hoc
!	!	!	!	!	!	!	!LO:LB:g=original	!	!
=57	=57	=57	=57	=57	=57	=57	=57	=57	=57
.	.	.	8qqg/	.	.	.	.	.	.
4BB/	#	.	4f#/	.	(16ee\LL	.	(16ee\LL	-ta-	e-
.	.	.	.	.	16dd#X\)	.	16dd#X\)	.	.
.	.	.	.	.	(16dd#\	.	(16dd#\	.	.
.	.	.	.	.	16ccn\JJ)	.	16cc\JJ)	.	.
8r	.	.	8r	.	(16cc\LL	.	(16cc\LL	.	.
.	.	.	.	.	16b\)	.	16b\)	.	.
!	!	!	!	!	!	!LO:DY:t=f&colon;	!	!	!
16B|\LL	.	.	16b/LL|	.	16b\|	f	(16b\	.	.
16A|\JJ	.	.	16a/JJ|	.	16a\JJ|	.	16a\JJ)	.	.
16G|\LL	.	.	16g/LL	.	16g/LL	.	(16g/LL	.	-xi-
16F#|\J	.	.	16f#/J	.	16f#/J	.	16f#/JJ)	.	-li-
8E|\J	.	.	8e/J	.	8e/J	.	8e/	-bo,	-um
16D|/LL	.	.	4r	.	4r	.	4r	.	.
16C|/	.	.	.	.	.	.	.	.	.
16BB|/	.	.	.	.	.	.	.	.	.
16AA|/JJ	.	.	.	.	.	.	.	.	.
=58	=58	=58	=58	=58	=58	=58	=58	=58	=58
!LO:TX:a:t=P:problem=mixed beam	!	!	!	!	!	!LO:DY:a:t=pia.	!	!	!
8GG/L	.	.	8.B/L	.	8.gT/L	p	(8.gT\L	Pre-	o-
8G\	.	.	.	.	.	.	.	.	.
.	.	.	16g/K	.	16b/K	.	16b\Jk)	.	.
8F#\	6	.	8.f#/	.	8.aT/	.	(8.aT\L	-ces	.
8D\J	7	.	.	.	.	.	.	.	.
.	.	.	16a/Jk	.	16cc/Jk	.	16cc\Jk)	.	.
8G\L	.	.	(16g/LL	.	(16b\LL	.	(16b\LL	pi-	.
.	.	.	16a/JJ)	.	16cc\JJ)	.	16cc\JJ)	.	.
16G\L	.	.	4b\	.	4dd\	.	4dd\	-as	-sten-
16A\JJ	.	.	.	.	.	.	.	.	.
8B\L	6 3	.	.	.	.	.	.	.	.
8G\J	.	.	8b\	.	8gg\	.	[8gg\	ti-	-de
!	!	!	!	!	!LO:LB:g=original	!	!	!	!
=59	=59	=59	=59	=59	=59	=59	=59	=59	=59
.	.	.	8qqb/	.	.	.	.	.	.
4D/	.	.	4a/	.	(16gg\LL	.	16gg\LL]	.	o
.	.	.	.	.	16ff#\)	.	16ff#\JJ	.	.
.	.	.	.	.	(16ff#\	.	(16ff#\LL	-bi	.
.	.	.	.	.	16ee\JJ)	.	16ee\JJ)	.	.
8r	.	.	8r	.	(16ee\LL	.	(16ee\LL	da-	.
.	.	.	.	.	16dd\)	.	16dd\)	.	.
!	!	!	!	!	!	!LO:DY:a:t=f&colon;	!	!	!
16d|\LL	.	.	16dd\LL|	.	16dd\|	f	(16dd\	.	.
16c|\JJ	.	.	16cc\JJ|	.	16cc\JJ|	.	16cc\JJ)	.	.
!LO:LB:g=original	!	!	!LO:LB:g=original	!	!	!	!LO:LB:g=original	!	!
16B|\LL	.	.	16b/LL	.	16b/LL	.	(16b\LL	.	Cle-
16A|\J	.	.	16a/J	.	16a/J	.	16a\JJ)	.	.
8G|\J	.	.	8g/J	.	8g/J	.	8g/	-bo	-mens
8GG/	.	.	8r	.	8r	.	8r	.	.
!	!	!	!	!	!	!LO:DY:a:t=pia.	!	!	!
8r	.	.	8b\	.	8b\	p	8b\	Te	o
=60	=60	=60	=60	=60	=60	=60	=60	=60	=60
4E\	#	.	8.g#X/L	.	8.bt/L	.	8.b\L	ho-	pi-
.	.	.	16f#/K	.	16a/K	.	16a\Jk	.	.
8r	.	.	8e/	.	8g/	.	(16g#X\KL	-no-	.
!	!	!	!	!	!	!	!LO:TX:a:t=..	!	!
.	.	.	.	.	.	.	8b'\	.	.
8G#X\	6 5	.	8b/J	.	8dd/J	.	.	.	.
.	.	.	.	.	.	.	16dd\Jk)	.	.
!LO:TX:a:t=P:problem=mixed beam	!	!	!LO:TUP:r=8	!	!	!	!LO:TUP:r=8	!	!
!	!	!	!LO:TUP:b	!	!	!	!	!	!
8A\L	.	.	24e/LL	.	24cc\LL	.	24cc\LL	-ra-	.
.	.	.	24d/	.	24b\	.	24b\	.	.
.	.	.	24c/	.	24a\JJ	.	24a\	.	.
!	!	!	!LO:TUP:b	!	!LO:TUP:b	!	!	!	!
8E\	7 #	.	24d/	.	24b/LL	.	24b\	.	.
.	.	.	24c/	.	24a/	.	24a\	.	.
.	.	.	24B/JJ	.	24g/JJ	.	24g#X\JJ	.	.
8AA/J	.	.	8c/L	.	8a/L	.	8a\	-re,	-a
8r	.	.	8f#/J	.	16r	.	16r	.	.
.	.	.	.	.	16a/Jk	.	16a\	Te	o
=61	=61	=61	=61	=61	=61	=61	=61	=61	=61
4D\	.	.	8.f#/L	.	8.aT/L	.	8.aT\L	a-	dul-
.	.	.	16e/Jk	.	16g/Jk	.	16g\Jk	.	.
!	!	!	!	!	!LO:TX:a:t=P:problem=mixed beam	!	!	!	!
8r	.	.	8d/L	.	8f#/L	.	(16f#\KL	.	.
!	!	!	!	!	!	!	!LO:TX:a:t=..	!	!
.	.	.	.	.	.	.	8a'\	-da-	.
8F#\	6 n5	.	8a/J	.	8cc\J	.	.	.	.
.	.	.	.	.	.	.	16cc\Jk)	.	.
!	!	!	!	!	!LO:LB:g=original	!	!LO:LB:g=original	!	!
!	!	!	!LO:TUP:r=8	!	!LO:TUP:r=8	!	!LO:TUP:r=8	!	!
!	!	!	!LO:TUP:b	!	!LO:TUP:b	!	!	!	!
8G\L	.	.	24d/LL	.	24b/LL	.	24b\LL	-ma-	.
.	.	.	24c/	.	24a/	.	24a\	.	.
.	.	.	24B/	.	24g/	.	24g\	.	.
!	!	!	!LO:TUP:b	!	!LO:TUP:b	!	!	!	!
8D\J	7	.	24c/	.	24a/	.	24a\	.	.
.	.	.	24B/	.	24g/	.	24g\	.	.
.	.	.	24A/JJ	.	24f#/JJ	.	24f#\JJ	.	.
8GG/	.	.	8B/L	.	8g/L	.	8g,\	-re	-cis,
8r	.	.	8g/J	.	8b/J	.	8b\	non	O
!	!	!	!LO:LB:g=original	!	!	!	!	!	!
=62	=62	=62	=62	=62	=62	=62	=62	=62	=62
*tremolo	*	*	*tremolo	*	*	*	*	*	*
8E\L	.	.	8g/L	.	(16ee\LL	.	16ee\LL	ces-	dul-
.	.	.	.	.	16b\)	.	16b\	.	.
8E\	.	.	8g/	.	(16gg\	.	16gg\	.	.
.	.	.	.	.	16ee\JJ)	.	16ee\JJ	.	.
8E\	.	.	8g/	.	(16bb\LL	.	16bb\LL	.	.
.	.	.	.	.	16gg\)	.	16gg\	.	.
8E\J	.	.	8g/J	.	(16ff#\	.	16ff#\	.	.
.	.	.	.	.	16ee\JJ)	.	16ee\JJ	.	.
*Xtremolo	*	*	*Xtremolo	*	*	*	*	*	*
!LO:TX:a:t=P:problem=mixed beam	!	!	!	!	!	!	!	!	!
8B\L	#	.	8f#/L	.	16dd#X\LL	.	(16dd#X\LL	-sa-	.
.	.	.	.	.	16ccn\J	.	16cc\JJ)	.	.
8BB/	.	.	8f#/J	.	8b\J	.	8b\	-bo	-cis
8BB/J	.	.	8f#/L|	.	8r	.	8r	.	.
8r	.	.	(16b/L	.	(16ee\LL	.	16ee\	ho-	Vir-
.	.	.	16g/JJ)	.	16b\JJ)	.	16b\	-no-	.
=63	=63	=63	=63	=63	=63	=63	=63	=63	=63
8r	.	.	(16g/LL	.	(16b/LL	.	(16b\LL	-ra-	.
.	.	.	16f#/J)	.	16a/J)	.	16a\JJ)	.	.
16BB/LL	#	.	8f#/J|	.	8a/J|	.	8a\	-re	-go
16C#X/J	.	.	.	.	.	.	.	.	.
!	!	!	!	!	!	!	!LO:LB:g=original	!	!
8D#X/J	6	.	8r	.	8r	.	8r	.	.
!	!	!	!	!	!LO:TX:a:t=P:problem=mixed beam	!	!	!	!
8r	.	.	(16a/LL	.	(16ff#\LL	.	16ff#\	ac	o
.	.	.	16f#/JJ)	.	16a/JJ)	.	16a/	a-	dul-
!LO:LB:g=original	!	!	!	!	!	!	!	!	!
8r	.	.	(16f#/LL	.	(16a/LL	.	(16a/LL	-ma-	.
.	.	.	16e/J)	.	16g/J)	.	16g/JJ)	.	.
16E\LL	.	.	8e/J|	.	8g/J|	.	8g/	-re	-cis
16F#\JJ	.	.	.	.	.	.	.	.	.
8G\L	.	.	8r	.	8r	.	8r	.	.
8E\J	.	.	8b\	.	8b\	.	8b\	ae-	Vir-
!	!	!	!	!	!LO:LB:g=original	!	!	!	!
=64	=64	=64	=64	=64	=64	=64	=64	=64	=64
4BB/	#	.	4f#/	.	(16b\LL	.	16b\LL	.	.
.	.	.	.	.	16cc#X\)	.	16cc#X\	.	.
.	.	.	.	.	(16dd#X\	.	16dd#X\	.	.
.	.	.	.	.	16ee\JJ)	.	16ee\JJ	.	.
4r	.	.	4r	.	(16ff#\LL	.	16ff#\LL	.	.
.	.	.	.	.	16gg\)	.	16gg\	.	.
.	.	.	.	.	(16aa\	.	16aa\	.	.
.	.	.	.	.	16ff#\JJ)	.	16ff#\JJ	.	.
4E\	.	.	2r;;	.	4gg\	.	24gg\LL	.	.
.	.	.	.	.	.	.	24bb\	.	.
.	.	.	.	.	.	.	24aa\	.	.
.	.	.	.	.	.	.	24gg\	.	.
.	.	.	.	.	.	.	24ff#\	.	.
.	.	.	.	.	.	.	24ee\JJ	.	-go
4BB;;/	.	.	.	.	4r;;	.	4ff#;\	-ter-	Ma-
=65	=65	=65	=65	=65	=65	=65	=65	=65	=65
8E\L	.	.	8r	.	8r	.	4ee\	-ne.	-ria.
8c|\	.	.	8ccn\L|	.	8cc\L|	.	.	.	.
8A|\	.	.	8a\|	.	8a\|	.	4r	.	.
8B|\J	.	.	8b\J|	.	8b\J|	.	.	.	.
4E\	.	.	4e/	.	4e/	.	2r	.	.
!LO:TX:b:i:t=da Capo	!	!	!LO:TX:a:i:t=da Capo	!	!LO:TX:b:i:t=da Capo	!	!LO:TX:b:t=da Capo	!	!
4r	.	.	4r	.	4r	.	.	.	.
==	==	==	==	==	==	==	==;;	==	==
*-	*-	*-	*-	*-	*-	*-	*-	*-	*-
!!!system-decoration: s1[(s2,s3)]s4
!!!RDF**kern: | = vertical stroke
!!!ENC: Andrzej Gręziak
!!!END: 2020-07-03
!!!ENC: Marta Lawrence
!!!END: 2022-01-30
